X: 4259
T: Bob Johnson's
R: reel
M: 4/4
K: Amajor
eg|aA A/A/A EACE|A,AAB cdec|bB B/B/B ABFD|B,BBc defg|
aA A/A/A EACE|A,AAB cdec|a2 ec dfed|c<A BG A2:|
z d|ceef ecAe|cAae cdec|B<b ba g<b eg|(3fgf ^df e2
eg|aA A/A/A ceAc|GABc defg|a2 ec dfed|c<A BG A2:|

